X: 1716
T: Polska i G-moll efter Klockar Andersson
S: efter Klockar Andersson ([[Personer/Johan August Andersson]])
R: Polska
O: Lappland
M: 3/4
L: 1/8
Q: 1/4=110
K: G dor ^f
D: Folk tunes from Västerbotten (Sonets folkmusikserie del 9) 
N: Inspelning finns på [[http://open.spotify.com/track/70fC4nelPlm9wd68KakN3K|Spotify]].
d3/2g/2d2c/4d/4c> A| \
B/2c/2B/2A/2B2G2|1 \
D F/2A/2 dc/2A/ FD| \
[M: 4/4]GF/2G/2 B/2A/2G/2F/2 GD G,D:|2
DF/2A/2 dc/2A/2| \
[M: 4/4]DE/2F/2G2G,4\
|:d3/2b/2a2g2| \
[B2_E2]g [AD] fd|
g2d2B/2A/2B/2c/2| \
dg dc (3B/2c/2B/2 A/2G/2|1\
F/2G/2A/2F/2 GD G,D:|2 \
F/2G/2A/2F/2G4|]
(:musicend:)
(:music:)
